material/.icons/material/gamepad-circle.svg

<svg xmlns="http://www.w3.org/2000/svg" viewBox="0 0 24 24"><path d="M5 8a4 4 0 014 4 4 4 0 01-4 4 4 4 0 01-4-4 4 4 0 014-4m7-7a4 4 0 014 4 4 4 0 01-4 4 4 4 0 01-4-4 4 4 0 014-4m0 14a4 4 0 014 4 4 4 0 01-4 4 4 4 0 01-4-4 4 4 0 014-4m7-7a4 4 0 014 4 4 4 0 01-4 4 4 4 0 01-4-4 4 4 0 014-4z"/></svg>

<?xml version="1.0" encoding="UTF-8"?><!DOCTYPE svg PUBLIC "-//W3C//DTD SVG 1.1//EN" "http://www.w3.org/Graphics/SVG/1.1/DTD/svg11.dtd"><svg xmlns="http://www.w3.org/2000/svg" xmlns:xlink="http://www.w3.org/1999/xlink" version="1.1" id="mdi-gamepad-circle" width="24" height="24" viewBox="0 0 24 24"><path d="M5,8A4,4 0 0,1 9,12A4,4 0 0,1 5,16A4,4 0 0,1 1,12A4,4 0 0,1 5,8M12,1A4,4 0 0,1 16,5A4,4 0 0,1 12,9A4,4 0 0,1 8,5A4,4 0 0,1 12,1M12,15A4,4 0 0,1 16,19A4,4 0 0,1 12,23A4,4 0 0,1 8,19A4,4 0 0,1 12,15M19,8A4,4 0 0,1 23,12A4,4 0 0,1 19,16A4,4 0 0,1 15,12A4,4 0 0,1 19,8Z" /></svg>
